X: 30374
T: Old Players
R: reel
M: 4/4
K: Amixolydian
|:AG|EAAB cdec|d2ec dBGD|EAAB cdef|(3gfe af gedB|
cdef gfge|agec d2cd|edef gfge|dBGB A2:|
|:(3ef^g|a2^gb aged|cdef =g2ef|g2fa gfef|gfed cAA2|
a2^gb aged|cdef gfge|a^gaf =gfge|dBGB A2:|

